X:1
T:Life’s Railway
T:Life’s Railway
T:William Owen Jones
T:William Owen Jones, 1922
T:Public Domain Courtesy of the Cyber Hymnal™
T:Public Domain Courtesy of the Cyber Hymnal™
C:William Owen Jones
Z:Public Domain
Z:Courtesy of the Cyber Hymnal™
%%score ( 1 2 ) ( 3 4 )
L:1/8
Q:1/4=102
M:3/4
K:Ab
V:1 treble 
V:2 treble 
V:3 bass 
V:4 bass 
V:1
 [CE][CA] | [Ec]3 [CA] [DB][Ec] | [Fd]2 [Ec]2 [EB][EA] | [DG]3 [CA] [DB][Ec] | [CA]4 [CE][CA] | %5
w: 1.~You are|travel- ing on a|rail- way, Wind- ing|through this maze of|life, Climb- ing|
w: 2.~Curves will|meet you as you|jour- ney, You will|meet with wrecks of|time; You will|
w: 3.~Wind and|rain some days will|hin- der, Skies will|dark- en, sick- ness|come; You will|
w: 4.~You will|cross the bridge of|mer- cy And the|ri- ver of de-|light, You will|
 [Ec]3 [CA] [DB][Ec] | [Fd]2 [Ec]2 [Ec][Fd] | [DB]3 [DE] [Ec][DB] | [CA]4 [Fd]>[Fd] | %9
w: up the hills of|tri- al, In- to|vales of sin and|strife; But there’s|
w: cross the bridge of|sad- ness, You will|reach some heights sub-|lime. Ne- ver|
w: want to tra- vel|free- ly To a|friend or heav’n- ly|home; Put your|
w: climb the hills su-|per- nal, You shall|gain the hills of|light; Soon the|
 [Fd]3 [Fd] [Ge][Fd] | [Ec]2 [CA]2 [Ec]>[=EB] | [FA]3 [EF] [=DG][Dc] | [EB]4 [CE][CA] | %13
w: one who knows the|jour- ney, He can|sure- ly take you|through; Je- sus|
w: fear, for Christ is|with you, And He|knows the way so|plain; Keep your|
w: trust in Christ the|Sav- ior, Well He|knows this line and|rail; He will|
w: home so free- ly|giv- en Will be|seen on “glo- ry’s|shore”; You have|
 [Ec]3 [Ee] [Ed][_Gc] | [Fd]2 [DF]2 [Fc][FB] | [EA]3"^riten." [=DA] [Ec]>[_DB] | [CA]4 || %17
w: knows the way to|glo- ry, He will|safe- ly car- ry|you.|
w: eye on your dear|Sav- ior, He will|ban- ish fear and|pain.|
w: ne- ver leave you|lone- ly For His|love will ne- ver|fail.|
w: reached the heav’n- ly|sta- tion, Ne’er to|leave for- ev- er-|more.|
"^Refrain" [EB]>[Ec] | [Ed]3 [Ed] [Ec][DB] | [CA]2 [Ec]2 F[Fc] | [=DB]3 [DF] [EG][DA] | %21
w: ||||
w: Je- sus,|Sav- ior, bless- èd|Keep- er, Guide us|on to Heav’n a-|
w: ||||
w: ||||
 [DB]4 [Ee][Ed] | [Ec]3 [Ec] [Fd][_Ge] | [Ff]2 [FB]2 [Af][Ae] | [FA]3 [_Gc] [Fd][=GB] | A4 |] %26
w: |||||
w: bove; Where the|saints through- out the|ag- es Will u-|nite in songs of|love.|
w: |||||
w: |||||
V:2
 x2 | x6 | x6 | x6 | x6 | x6 | x6 | x6 | x6 | x6 | x6 | x6 | x6 | x6 | x6 | x6 | x4 || x2 | x6 | %19
 x4 F x | x6 | x6 | x6 | x6 | x6 | A4 |] %26
V:3
 [A,,A,][A,,A,] | [A,,A,]3 [A,,E,] [A,,E,][A,,A,] | [A,,A,]2 [A,,A,]2 [B,,G,][C,A,] | %3
 [E,B,]3 [E,A,] [E,G,][E,G,] | [A,,A,]4 [A,,A,][A,,A,] | [A,,A,]3 [A,,E,] [A,,E,][A,,A,] | %6
 [A,,A,]2 [A,,A,]2 [A,,A,][A,,A,] | [E,G,]3 [E,G,] [E,G,][E,G,] | [A,,A,]4 [D,A,]>[D,A,] | %9
 [D,A,]3 [D,A,] [D,A,][D,A,] | [A,,A,]2 [A,,A,]2 A,>[G,B,] | [F,C]3 [F,C] [B,,B,][B,,F,] | %12
 [E,G,]4 [A,,A,][A,,A,] | [A,,A,]3 [C,A,] [B,,G,][A,,A,] | [D,A,]2 [D,A,]2 [D,E][D,D] | %15
 [E,C]3 [F,B,] [E,A,]>[E,G,] | [A,,A,]4 || [E,G,]>[E,A,] | [E,B,]3 [E,B,] [E,A,][E,G,] | %19
 [A,,A,]2 [A,,A,]2 [F,A,][F,=A,] | B,3 [A,B,] [G,B,][F,B,] | [E,G,]4 [E,C][E,B,] | %22
 A,3 [_G,A,] [F,A,][E,A,] | [D,A,]2 [D,A,]2 [D,A,][C,A,] | [F,A,]3 [E,=A,] [D,B,][E,D] | [A,,C]4 |] %26
V:4
 x2 | x6 | x6 | x6 | x6 | x6 | x6 | x6 | x6 | x6 | x4 A,3/2 x/ | x6 | x6 | x6 | x6 | x6 | x4 || %17
 x2 | x6 | x6 | B,3 x3 | x6 | A,3 x3 | x6 | x6 | x4 |] %26

